X: 15
T: Eugenia
C: Scott Joplin
%%abc-version 2.0
%%abcx-abcm2ps-target-version 5.9.1 (29 Sep 2008)
%%abc-creator hum2abc beta
%%abcx-conversion-date 2021/07/20 09:00:57
%%abc-copyright 2021 Craig Stuart Sapp
%%abc-edited-by Craig Stuart Sapp
%%abc-edited-by Craig Stuart Sapp
%%abcx-initial-encoding-date 2004/11/28
%%humdrum-veritas 862084060
%%humdrum-veritas-data 1456274324
%%removed 0's from note length
%%linebreak <none>
%%barnumbers 0
L: 1/8
M: 2/4
N: Derived from eugenia.krn
Q: "Slow March Tempo [quarter]=72" 1/4=88
%%staves {1 2}
V: 1 clef=treble
V: 2 clef=bass
K: Bb
[V:1] F/B/c/B/- B/D/E/=B,/ | 
[V:2] F,/B,/C/B,/- B,/D,/E,/=B,,/ | 
[V:1] C/F/G/F/- F/A,/B,/G,/ | 
[V:2] C,/F,/G,/F,/- F,/A,,/B,,/G,,/ | 
[V:1] F,/G,/A,/B,/ C/D/E/C/ | 
[V:2] F,,/G,,/A,,/B,,/ C,/D,/E,/C,/ | 
[V:1] F z z/ F/G/A/ ]|:  
[V:2] F, [C,/C,,/][D,/D,,/] [E,/E,,/][F,/F,,/][E,/E,,/][C,/C,,/] ]|:  
[V:1] B/c/^c/d/- d/F/^F/G/- | 
[V:2] [B,,B,,,][DB,F,] F,,[DB,F,] | 
[V:1] G/B/c/d/- d/f/d/B/ | 
[V:2] B,,[DB,F,] [F,F,,][DB,_A,] | 
[V:1] z/ b/g/e/ B/G_G/ | 
[V:2] [E,E,,][EB,G,] [G,G,,][E,E,,] | 
[V:1] F/B/d/g/- g/e/c/A/ | 
[V:2] [D,D,,][DB,F,] F,,[EA,F,] | 
[V:1] B/c/^c/d/- d/F/^F/G/- | 
[V:2] [B,,B,,,][DB,F,] F,,[DB,F,] | 
[V:1] G/B/c/d/- d/f/=e/d/ | 
[V:2] B,,[DB,F,] =B,,[FD^G,] | 
[V:1] z/ c/c'/a/ c/dc/ & z< cB2 | 
[V:2] C,[FCA,] C,[=ECB,] | 
[V:1] [f2A2]-[f/A/]F/G/A/ | 
[V:2] [F,F,,][C,/C,,/][D,/D,,/] [_E,/_E,,/][F,/F,,/][E,/E,,/][C,/C,,/] | 
[V:1] B/c/^c/d/- d/F/^F/G/- | 
[V:2] [B,,B,,,][DB,F,] F,,[DB,F,] | 
[V:1] G/B/c/d/- d/B/d/f/ | 
[V:2] B,,[DB,F,] [D,D,,][DB,F,] | 
[V:1] z/ [b/B/][g/G/][a/A/] [b/B/][c'c][^c'/^c/] | 
[V:2] [G,G,,][DB,G,] [E,E,,][EA,G,] | 
[V:1] [d'/a/^f/d/]f/a/[c'/a/f/e/]- [c'/a/f/]=f/g/a/ & x2e2 | 
[V:2] [D,D,,][DA,^F,] [=F,,=F,,,][EA,=F,] | 
[V:1] [b/d/][d/B/][e/c/][f/d/]- [f/d/][d/B/][f/d/][b/f/]- | 
[V:2] [B,,B,,,][DB,F,] [D,D,,][DB,_A,] | 
[V:1] [b/f/][g/e/][a/f/][b/g/]- [b/g/][g/=e/][e/^c/][c/B/] | 
[V:2] [E,E,,][EB,G,] [=E,=E,,][^CB,G,] | 
[V:1] d/F/f/d/ F/GF/ & B/F/-F E3/E/ |[1 
[V:2] [F,F,,][DB,F,] [F,F,,][A,F,] | 
[V:1] [B2D2]-[B/D/]F/G/A/ :|][2 
[V:2] [B,F,B,,][F,/F,,/][D,/D,,/] [E,/E,,/][F,/F,,/][E,/E,,/][C,/C,,/] :|]  
[V:1] [B2D2]-[B/D/]f/a/b/ ]|: 
[V:2] [B,B,,][F,F,,][B,,B,,,] z ]|:  
[V:1] [c'ae]=b/[c'/a/e/]- [c'/a/e/]d'/c'/a/ | 
[V:2] [F,F,,][EA,F,] [A,A,,][EA,F,] | 
[V:1] [geA]^f/[g/e/A/]- [g/e/][a/=f/][g/e/][e/c/] & x2A2 | 
[V:2] [CC,][EA,F,] [F,F,,][EA,F,] | 
[V:1] [dB]^c/[d/B/]- [d/B/]d/^c/d/ | 
[V:2] [B,B,,][DB,F,] [F,F,,][DB,F,] | 
[V:1] [gdBG][d/B/][f/d/B/F/]- [f/d/B/F/]d/B/F/ | 
[V:2] [B,B,,][DB,F,] [F,F,,][DB,F,] | 
[V:1] z/ d/e/c/ A/ce/ & z ^F z/ =F3/ | 
[V:2] [D,D,,][DCA,^F,] [F,^F,,][DCA,F,] | 
[V:1] d/B/c/d/- d/d/g & G>G- G^c | 
[V:2] G,[DB,G,][DB,G,] [B,B,,] & [G,3G,,3]x | 
[V:1] z/ a/b/g/ =e/gb/ & z ^c z/ c3/ | 
[V:2] [A,A,,][^CA,G,] ^C,[CA,G,] | 
[V:1] a/f/g/a/- a/f/a/b/ & d>d- d z | 
[V:2] D,[DA,F,][DA,F,] z & D,3z | 
[V:1] [c'ae]=b/[c'/a/e/]- [c'/a/e/]d'/c'/a/ | 
[V:2] [F,F,,][EA,F,] [A,A,,][EA,F,] | 
[V:1] [geA]^f/[g/e/A/]- [g/e/][a/=f/][g/e/][e/c/] & x2A2 | 
[V:2] [CC,][EA,F,] [F,F,,][EA,F,] | 
[V:1] [dB]^c/[d/=B/]- [d/=B/]B/=c/d/ | 
[V:2] [B,B,,][DB,F,] [F,F,,][D=B,F,] | 
[V:1] eg/e/- e/c/G | 
[V:2] C[ECG,][ECG,] z & [C3C,3]z | 
[V:1] [e/E/][d/D/][c/C/][d/D/] [e/E/][beB][_g/B/_G/] | 
[V:2] [C,/C,,/][D,/D,,/][E,/E,,/][F,/F,,/] [G,/G,,/][_G,_G,,][E,/E,,/] | 
[V:1] [fBF]f/d'/- d'/b/f/d/ | 
[V:2] [D,D,,][DB,F,] [F,F,,][DB,F,] | 
[V:1] [ec]e/c'/- c'/f/e/c/ |[1 
[V:2] [F,F,,][EA,F,] [F,F,,][EA,F,] | 
[V:1] B2-B/f/a/b/ :|][2 
[V:2] [DB,][FF,] [DD,][B,B,,] :|]  
[V:1] B2-B/F/G/A/ || 
[V:2] [DB,][F,/F,,/][D,/D,,/] [E,/E,,/][F,/F,,/][E,/E,,/][C,/C,,/] ||  
[V:1] B/c/^c/d/- d/F/^F/G/- | 
[V:2] [B,,B,,,][DB,F,] F,,[DB,F,] | 
[V:1] G/B/c/d/- d/f/d/B/ | 
[V:2] B,,[DB,F,] [F,F,,][DB,_A,] | 
[V:1] z/ b/g/e/ B/G_G/ | 
[V:2] [E,E,,][EB,G,] [G,G,,][E,E,,] | 
[V:1] F/B/d/g/- g/e/c/A/ | 
[V:2] [D,D,,][DB,F,] F,,[EA,F,] | 
[V:1] B/c/^c/d/- d/F/^F/G/- | 
[V:2] [B,,B,,,][DB,F,] F,,[DB,F,] | 
[V:1] G/B/c/d/- d/f/=e/d/ | 
[V:2] B,,[DB,F,] =B,,[FD^G,] | 
[V:1] z/ c/c'/a/ c/dc/ & z< cB2 | 
[V:2] C,[FCA,] C,[=ECB,] | 
[V:1] [f2A2]-[f/A/]F/G/A/ | 
[V:2] [F,F,,][C,/C,,/][D,/D,,/] [E,/E,,/][F,/F,,/][E,/E,,/][C,/C,,/] | 
[V:1] B/c/^c/d/- d/F/^F/G/- | 
[V:2] [B,,B,,,][DB,F,] F,,[DB,F,] | 
[V:1] G/B/c/d/- d/B/d/f/ | 
[V:2] B,,[DB,F,] [D,D,,][DB,F,] | 
[V:1] z/ [b/B/][g/G/][a/A/] [b/B/][c'c][^c'/^c/] | 
[V:2] [G,G,,][DB,G,] [E,E,,][EA,G,] | 
[V:1] [d'/a/^f/d/]f/a/[c'/a/f/e/]- [c'/a/f/]=f/g/a/ & x2e2 | 
[V:2] [D,D,,][DA,^F,] [=F,,=F,,,][EA,=F,] | 
[V:1] [b/d/][d/B/][e/c/][f/d/]- [f/d/][d/B/][f/d/][b/f/]- | 
[V:2] [B,,B,,,][DB,F,] [D,D,,][DB,_A,] | 
[V:1] [b/f/][g/e/][a/f/][b/g/]- [b/g/][g/=e/][e/^c/][c/B/] | 
[V:2] [E,E,,][EB,G,] [=E,=E,,][^CB,G,] | 
[V:1] d/F/f/d/ F/GF/ & B/F/- FE2 | 
[V:2] [F,F,,][DB,F,] [F,F,,][A,F,] | 
[V:1] [B2D2]-B/d/f/a/ & x2D/B/d ]|:  
[V:2] [B,F,B,,][C/C,/][B,/B,,/] [_A,/_A,,/][B,/B,,/][A,/A,,/][F,/F,,/] ]|:  
[V:1]  [K:Eb] [ge]>[af] [b/g/][a/f/][ge] | 
[V:2]  [K:Eb] [E,E,,][EB,G,] [E,E,,][EB,G,] | 
[V:1] [fd]>[ge] [a/f/][g/e/][fd] | 
[V:2] [B,B,,][DB,A,] [B,B,,][=B,=B,,] | 
[V:1] [ec]>[fd] [g/e/][f/d/][ec] | 
[V:2] [CC,][ECG,] [C,C,,][ECG,] | 
[V:1] df/g/ a/_ba/ & =B2d2 | 
[V:2] [G,G,,][D=B,G,] [F,F,,][D_B,A,] | 
[V:1] g/f/e/g/- g/^f/g & e>e- e[^cB] | 
[V:2] [E,E,,][EB,G,] [E,E,,][=E,=E,,] | 
[V:1] g/f/=e/f/- f/e/f & [dB]>[dB]- [dB]d | 
[V:2] [F,F,,][DB,F,] [DD,][DB,F,] | 
[V:1] f/g/c'/f/- f/g/f & _e>e- ee | 
[V:2] [CC,][E=A,F,] [F,F,,][EA,F,] | 
[V:1] [b2d2]-b/d/f/a/ & x2d/B/d | 
[V:2] [B,B,,][C/C,/][B,/B,,/] [_A,/_A,,/][B,/B,,/][A,/A,,/][F,/F,,/] | 
[V:1] [ge]>[af] [b/g/][a/f/][ge] | 
[V:2] [E,E,,][EB,G,] [E,E,,][EB,G,] | 
[V:1] [fd]>[ge] [a/f/][g/e/][fd] | 
[V:2] [B,B,,][DB,A,] [B,B,,][=B,=B,,] | 
[V:1] [ec]>[fd] [g/e/][f/d/][ge] | 
[V:2] [CC,][ECG,] [C,C,,][ECG,] | 
[V:1] af/g/ a/c'a/ & c4 | 
[V:2] [F,F,,][FCA,] [CC,][FCA,] | 
[V:1] e/a/b/a/- a/e/a & [_c3A3][eA] | 
[V:2] [_C_C,][A,A,,] [E,E,,][C,_C,,] | 
[V:1] g/f/e/B/- B/c/G & [eB]>[GE]- [GE]E | 
[V:2] [B,,B,,,][E,E,,] [G,G,,][B,B,,] | 
[V:1] B/c/f/B/- B/c/B & A>A- AA | 
[V:2] [F,F,,][DB,A,] [B,,B,,,][DB,A,] | 
[V:1] [e2G2]-[eG] B,/=B,/ ]|:  
[V:2] [E,E,,]B,,E,, B,,/=B,,/ ]|:  
[V:1] C/D/E/D/ E/CE/ | 
[V:2] C,/D,/E,/D,/ E,/C,E,/ | 
[V:1] DA/F/- F/D/=B, | 
[V:2] D,A,/F,/- F,/D,/=B,,[K:clef=treble] | 
[V:1] f/=e/f/d/ _e/d/e/f/ | 
[V:2] [A2D2=B,2][G2E2C2][K:clef=bass] | 
[V:1] !accent![^fdc]!accent![fdc] !accent![gd=B][K:clef=bass] D,/^D,/ | 
[V:2] !accent![_A,_A,,]!accent![A,A,,] !accent![G,G,,] D,,/^D,,/ | 
[V:1] =E,/^F,/G,/F,/ G,/E,G,/ | 
[V:2] =E,,/^F,,/G,,/F,,/ G,,/=E,,G,,/ | 
[V:1] ^F,C/=A,/- A,/^F,/^D,[K:clef=treble] | 
[V:2] ^F,,C,/=A,,/- A,,/^F,,/^D,, | 
[V:1] =A/^G/A/^F/ =G/F/G/=A/ | 
[V:2] [C2^F,2^D,2][=B,2G,2=E,2] | 
[V:1] !accent![^A^F=E]!accent![AFE] !accent![=BF^D] B/=A/ | 
[V:2] !accent![C,C,,]!accent![C,C,,] !accent![=B,,=B,,,]^D, | 
[V:1] G=ED=B, | 
[V:2] =E,C,=B,,G,, | 
[V:1] C/D/C/=B,/ C=B/=A/ | 
[V:2] =A,,/=B,,/A,,/^G,,/ A,,/D,/^D, | 
[V:1] G=ED=B, | 
[V:2] =E,C,=B,,G,, | 
[V:1] C/=B,/C/D/ C/=B,/_B, | 
[V:2] =A,,/^G,,/A,,/=B,,/ A,,_B,, | 
[V:1] EE- E/D/C/_B,/ | 
[V:2] _E,E,- E,/D,/C,/_B,,/ | 
[V:1] FF- F/D/C/B,/ | 
[V:2] F,F,- F,/D,/C,/B,,/ | 
[V:1] GG G/F/[G/=E/][=A/_E/] | 
[V:2] G,G,- G,/F,/C,/F,,/ | 
[V:1] B2-B/d/f/a/ & D2-D/B/d | 
[V:2] B,,[C/C,/][B,/B,,/] [A,/A,,/][B,/B,,/][A,/A,,/][F,/F,,/] | 
[V:1] [ge]>[af] [b/g/][a/f/][ge] | 
[V:2] [E,E,,][EB,G,] [E,E,,][EB,G,] | 
[V:1] [fd]>[ge] [a/f/][g/e/][fd] | 
[V:2] [B,B,,][DB,A,] [B,B,,][=B,=B,,] | 
[V:1] [ec]>[fd] [g/e/][f/d/][ec] | 
[V:2] [CC,][ECG,] [C,C,,][ECG,] | 
[V:1] df/g/ a/ba/ & =B2d2 | 
[V:2] [G,G,,][D=B,G,] [F,F,,][D_B,A,] | 
[V:1] g/f/e/g/- g/^f/g & e>e- e[^cB] | 
[V:2] [E,E,,][EB,G,] [E,E,,][=E,=E,,] | 
[V:1] g/f/=e/f/- f/e/f & [dB]>[dB]- [dB]d | 
[V:2] [F,F,,][DB,F,] [DD,][DB,F,] | 
[V:1] f/g/c'/f/- f/g/f & e>e- ee | 
[V:2] [CC,][E=A,F,] [F,F,,][EA,F,] | 
[V:1] [b2d2]-b/d/f/a/ & x2d/B/d | 
[V:2] [B,B,,][C/C,/][B,/B,,/] [A,/A,,/][B,/B,,/][A,/A,,/][F,/F,,/] | 
[V:1] [ge]>[af] [b/g/][a/f/][ge] | 
[V:2] [E,E,,][EB,G,] [E,E,,][EB,G,] | 
[V:1] [fd]>[ge] [a/f/][g/e/][fd] | 
[V:2] [B,B,,][DB,A,] [B,B,,][=B,=B,,] | 
[V:1] [ec]>[fd] [g/e/][f/d/][ge] | 
[V:2] [CC,][ECG,] [C,C,,][ECG,] | 
[V:1] af/g/ a/c'a/ & c4 | 
[V:2] [F,F,,][FCA,] [CC,][FCA,] | 
[V:1] e/a/b/a/- a/e/a & [_c3A3][eA] | 
[V:2] [_C_C,][A,A,,] [E,E,,][C,_C,,] | 
[V:1] g/f/e/B/- B/c/G & [eB]>[GE]- [GE]E | 
[V:2] [B,,B,,,][E,E,,] [G,G,,][B,B,,] | 
[V:1] B/c/f/B/- B/c/B & A>A- AA |[1 
[V:2] [F,F,,][DB,A,] [B,,B,,,][DB,A,] | 
[V:1] [e2G2]-[eG] B,/=B,/ :|][2 
[V:2] [E,E,,]B,,E,, B,,/=B,,/ :|]  
[V:1] [e2G2][e'ge] z |]  
[V:2] [E,E,,]B,,E,, z |]  


